dest/img/logotype.svg

<svg fill="none" height="50" viewBox="0 0 236 50" width="236" xmlns="http://www.w3.org/2000/svg"><g clip-rule="evenodd" fill-rule="evenodd"><g fill="#f30830"><path d="m31.9984 1.22074c-.1356.04215-.2684.09008-.4011.14463l-.9944.37644c-.645.30414-1.2991.56323-1.9077.92149-1.2508.64794-2.387 1.47893-3.4752 2.3405l-.7807.69297c-.1323.11736-.265.22562-.3886.34628l-.3676.37645-.7265.74711c-.241.25-.4581.53306-.6838.79215-.2233.27107-.4586.52686-.6694.80413l-.6178.84917-1.3743 1.87684-.3676.4938-.392.479-.7864.9607c-.2563.3256-.5578.6207-.8381.9339-.289.3041-.5636.6173-.865.9157-.6148.5814-1.2023 1.1925-1.8804 1.7318-.3287.2744-.6479.5632-.9948.8256l-1.0577.774c-1.4376 1-2.99889 1.8917-4.67758 2.5992-1.68488.6929-3.4781 1.202-5.32259 1.476-.80461.1207-1.615422.1988-2.42913.2322.277438-2.943 1.06386-5.7351 2.26953-8.2892 4.00528-8.50045 12.64927-14.382678 22.67007-14.397967h.0364c2.4383 0 4.795.346281 7.0224.997107z"/><path d="m6.2591 42.5977.02687.0057-.00289.0091c-.00579-.0029-.0091-.0029-.01199-.0058l-.02109-.009z"/><path d="m62.1201 13.6272c-1.5253-.1414-3.0531-.1385-4.5693-.0661-1.5158.0752-3.0229.238-4.5056.4938-1.4831.2528-2.9447.6024-4.3612 1.0483-.2291.069-.4582.1446-.6843.2227-1.1784.3947-2.3204.8736-3.4116 1.4219-.6632.3104-1.2838.6926-1.9077 1.0542l-.9072.5905c-.3072.1867-.5784.4243-.8711.6322-.2862.214-.5727.4248-.8377.6657l-.8075.693c-.4974.5091-1.025.9756-1.4712 1.5239-.9522 1.0331-1.7328 2.205-2.456 3.3889l-.4974.9215c-.0814.1537-.1658.3012-.2443.4578l-.2138.4789-.4279.9517c-.1385.3194-.2444.6537-.3676.9789-.1145.3314-.2473.6508-.3498.9851l-.2894 1.012-.6479 2.2318-.1716.5905-.2022.5843-.4098 1.1719c-.1265.3947-.3105.774-.4639 1.1624-.1658.3856-.3167.7773-.4974 1.16-.3799.7557-.7202 1.533-1.1664 2.2739-.217.3707-.4192.75-.6541 1.1174l-.7231 1.0905c-1.0097 1.4339-2.167 2.8074-3.4992 4.0483-1.3442 1.2289-2.8542 2.3223-4.4907 3.217-.0695.0388-.1385.0752-.2109.1111-4.9339-1.033-9.3369-3.5149-12.7398-6.9818.20798.0574.42505.1083.64501.1566.57555.1236 1.1664.2141 1.76304.2802 1.19655.1144 2.40805.1293 3.59265-.0182 2.3749-.2802 4.6532-1.1203 6.6998-2.5211 1.0188-.7136 1.971-1.5661 2.8662-2.5182l.6541-.738c.2138-.25.4069-.5268.6177-.7888.4251-.5153.7745-1.1025 1.1664-1.6628.1869-.286.3527-.5905.5305-.8885.1716-.3012.3676-.5876.5181-.9066l.4792-.9368.2415-.4698.2137-.488 1.4228-3.2079c.1745-.3764.3824-.7409.5726-1.1115.1989-.3674.3796-.738.5967-1.0963l.6628-1.0632.3316-.5273c.1145-.1715.2443-.3405.3646-.5091l.7414-1.0058c1.049-1.2954 2.1641-2.5392 3.4392-3.5996.6087-.5632 1.2925-1.0301 1.9438-1.5272l1.0336-.6715c.3378-.229.6963-.4248 1.0552-.6236.3585-.1896.7021-.4095 1.0725-.5752l1.0974-.5182c.7471-.3074 1.4856-.6297 2.2513-.8706 1.1453-.3914 2.3084-.7108 3.481-.9517.3767-.0785.7534-.1475 1.1333-.2107 1.5518-.2653 3.1131-.419 4.6685-.4732 1.5551-.0541 3.1072-.0091 4.6441.1236 1.5373.1355 3.0651.3405 4.5573.6868z"/><path d="m57.7953 6.17228c-1.5009-.30702-3.0196-.47272-4.5358-.56901-1.5158-.09338-3.0291-.09958-4.5329-.00909-1.5037.09009-2.9898.27686-4.4485.55992-.8199.15703-1.6303.35248-2.4262.58471-.6177.17769-1.2297.37934-1.8292.60207-.6905.23512-1.3504.54545-2.0103.83471l-.9675.4876c-.3254.15372-.6239.35868-.9344.53347-.3106.17769-.6178.35827-.9072.56612l-.877.60252c-.5515.4487-1.1271.8553-1.6303 1.3491-1.0609.9248-1.9681 2.0033-2.8182 3.0996l-.5937.8587c-.0993.1442-.2018.2831-.2952.4306l-.2655.4516-.5305.8975c-.1716.3013-.3163.6269-.473.9339-.1538.3161-.3196.6207-.4581.9397l-.3978.9731-.8889 2.1476-.2382.5694-.2654.557-.5363 1.1207c-.172.3764-.3949.7347-.5908 1.1053-.208.3645-.4007.7348-.6207 1.0963-.4614.7108-.8864 1.4459-1.4136 2.1298-.2564.3463-.4974.7016-.7715 1.0388l-.841 1.0033c-1.1602 1.3132-2.4623 2.5513-3.9239 3.6385-1.4711 1.0752-3.0923 1.9942-4.8161 2.7016-1.7241.7079-3.54463 1.2021-5.39201 1.4822-.83479.1294-1.67579.2079-2.51637.2438-1.93215-2.9124-3.27344-6.2529-3.846095-9.8495.087655.0301.178205.0636.265447.0938.554458.1863 1.136218.34 1.720858.4727 1.1755.2438 2.37786.3946 3.57155.3764 2.39275-.0148 4.74662-.5963 6.93802-1.7653 1.0907-.5962 2.1306-1.3372 3.125-2.1863l.7327-.6628c.241-.2228.4639-.4761.6991-.7141.4821-.4636.8952-1.012 1.3471-1.524.2171-.2648.4131-.5483.6239-.8223.2018-.283.428-.545.6149-.8462l.8712-1.3195.2679-.4607 1.7663-3.0302c.2171-.3553.4639-.6958.693-1.0421.2382-.3405.4614-.693.7116-1.0244l.7773-.9818.3887-.488c.136-.1595.2807-.31.4192-.4666l.8468-.919c1.1875-1.1715 2.432-2.28304 3.8184-3.19874.6661-.48801 1.3988-.87644 2.1008-1.30124l1.1003-.55124c.3614-.19256.7384-.34917 1.1151-.50289.3796-.15041.7442-.33141 1.1329-.45496l1.1486-.39463c.7774-.22272 1.546-.46074 2.3324-.61735.0815-.01818.16-.03595.2415-.05124 1.4827-.31612 2.9807-.51488 4.4725-.59628 1.5732-.08719 3.1403-.06942 4.6924.04834 1.5522.11736 3.0895.331 4.6024.63224 1.5128.30454 3.0075.67768 4.4543 1.18677z"/><path d="m50.0654 25.299c0 11.5422-7.8001 21.2591-18.4209 24.1777 2.179-2.7889 4.0206-6.5934 5.1324-11.7769 1.959-9.1268 7.2515-14.2471 12.8453-17.1148.2923 1.5239.4432 3.0995.4432 4.714z"/></g><path d="m77.3043 15.425v22.5374c0 .5251-.2622.7876-.7866.7876h-3.1842c-.5244 0-.7866-.2625-.7866-.7876v-22.5374c0-.5251.2622-.7875.7866-.7875h3.1842c.5244 0 .7866.2624.7866.7875zm9.028 23.325h-3.1842c-.5244 0-.7866-.2625-.7866-.7876v-22.5374c0-.5251.2622-.7875.7866-.7875h11.9499c.4995 0 .7492.2624.7492.7875v2.55c0 .525-.2497.7875-.7492.7875h-7.5295c-.2997 0-.4496.1374-.4496.4125v5.8124c0 .3001.1499.4501.4496.4501h6.4057c.5244 0 .7866.2624.7866.7874v2.5125c0 .5501-.2622.825-.7866.825h-6.4057c-.2997 0-.4496.1375-.4496.4125v7.9875c0 .5251-.2622.7876-.7866.7876zm15.6207 0h-3.7083c-.2498 0-.4246-.0813-.5245-.2438s-.0999-.3562 0-.5813l5.8068-11.5125-5.6195-10.9499c-.0999-.2001-.0999-.3875 0-.5625s.2747-.2625.5245-.2625h3.596c.624 0 1.037.2624 1.236.7875l3.559 8.0625h.15l3.521-8.0625c.25-.5251.649-.7875 1.199-.7875h3.671c.25 0 .431.0937.543.2812.113.1875.119.3812.019.5813l-5.694 10.9124 5.806 11.475c.125.25.138.4563.038.6188s-.287.2438-.562.2438h-3.746c-.525 0-.887-.25-1.087-.7501l-3.708-8.0999h-.15l-3.746 8.0999c-.225.5001-.599.7501-1.124.7501zm38.772 0h-12.25c-.524 0-.787-.2625-.787-.7876v-22.5374c0-.5251.263-.7875.787-.7875h12.25c.499 0 .749.2624.749.7875v2.55c0 .525-.25.7875-.749.7875h-7.83c-.299 0-.449.1374-.449.4125v4.8749c0 .2751.15.4126.449.4126h6.406c.525 0 .787.2624.787.7875v2.5499c0 .5251-.262.7876-.787.7876h-6.406c-.299 0-.449.1374-.449.4125v5.2125c0 .275.15.4125.449.4125h7.83c.499 0 .749.2624.749.7874v2.55c0 .5251-.25.7876-.749.7876zm14.722 0h-4.908c-.524 0-.836-.2625-.936-.7876l-5.807-22.4624c-.174-.5751.075-.8625.75-.8625h3.521c.499 0 .799.2624.899.7875l3.933 18.45h.15l3.933-18.45c.1-.5251.4-.7875.899-.7875h3.522c.624 0 .874.2874.749.8625l-5.806 22.4624c-.125.5251-.425.7876-.899.7876zm16.257-4.125h2.66c.799 0 1.367-.1688 1.704-.5063.338-.3375.506-.9062.506-1.7063v-11.4374c0-.8001-.168-1.3688-.506-1.7063-.337-.3375-.905-.5062-1.704-.5062h-2.66c-.799 0-1.361.1687-1.685.5062-.325.3375-.487.9062-.487 1.7063v11.4374c0 .8001.162 1.3688.487 1.7063.324.3375.886.5063 1.685.5063zm3.447 4.125h-4.196c-1.973 0-3.496-.525-4.57-1.5751-1.074-1.05-1.611-2.5624-1.611-4.5375v-11.8874c0-1.9751.537-3.4875 1.611-4.5375 1.074-1.0501 2.597-1.575 4.57-1.575h4.196c1.973 0 3.496.5249 4.57 1.575 1.074 1.05 1.611 2.5624 1.611 4.5375v11.8874c0 1.9751-.537 3.4875-1.611 4.5375-1.074 1.0501-2.597 1.5751-4.57 1.5751zm23.787 0h-12.324c-.525 0-.787-.2625-.787-.7876v-22.5374c0-.5251.262-.7875.787-.7875h3.184c.524 0 .786.2624.786.7875v18.7499c0 .2751.15.4126.45.4126h7.904c.499 0 .749.2749.749.8249v2.55c0 .5251-.25.7876-.749.7876zm13.523 0h-4.907c-.525 0-.837-.2625-.937-.7876l-5.806-22.4624c-.175-.5751.075-.8625.749-.8625h3.521c.5 0 .8.2624.9.7875l3.933 18.45h.15l3.933-18.45c.1-.5251.4-.7875.899-.7875h3.521c.625 0 .874.2874.75.8625l-5.807 22.4624c-.125.5251-.424.7876-.899.7876zm22.739 0h-12.25c-.524 0-.787-.2625-.787-.7876v-22.5374c0-.5251.263-.7875.787-.7875h12.25c.499 0 .749.2624.749.7875v2.55c0 .525-.25.7875-.749.7875h-7.83c-.299 0-.449.1374-.449.4125v4.8749c0 .2751.15.4126.449.4126h6.406c.525 0 .787.2624.787.7875v2.5499c0 .5251-.262.7876-.787.7876h-6.406c-.299 0-.449.1374-.449.4125v5.2125c0 .275.15.4125.449.4125h7.83c.499 0 .749.2624.749.7874v2.55c0 .5251-.25.7876-.749.7876z" fill="#f9fcff"/></g></svg>

<svg width="236" height="50" viewBox="0 0 236 50" fill="none" xmlns="http://www.w3.org/2000/svg">
<path fill-rule="evenodd" clip-rule="evenodd" d="M31.9984 1.22074C31.8628 1.26289 31.73 1.31082 31.5973 1.36537L30.6029 1.74181C29.9579 2.04595 29.3038 2.30504 28.6952 2.6633C27.4444 3.31124 26.3082 4.14223 25.22 5.0038L24.4393 5.69677C24.307 5.81413 24.1743 5.92239 24.0507 6.04305L23.6831 6.4195L22.9566 7.16661C22.7156 7.41661 22.4985 7.69967 22.2728 7.95876C22.0495 8.22983 21.8142 8.48562 21.6034 8.76289L20.9856 9.61206L19.6113 11.4889L19.2437 11.9827L18.8517 12.4617L18.0653 13.4224C17.809 13.748 17.5075 14.0431 17.2272 14.3563C16.9382 14.6604 16.6636 14.9736 16.3622 15.272C15.7474 15.8534 15.1599 16.4645 14.4818 17.0038C14.1531 17.2782 13.8339 17.567 13.487 17.8294L12.4293 18.6034C10.9917 19.6034 9.43041 20.4951 7.75172 21.2026C6.06684 21.8955 4.27362 22.4046 2.42913 22.6786C1.62452 22.7993 0.813708 22.8774 0 22.9108C0.277438 19.9678 1.06386 17.1757 2.26953 14.6216C6.27481 6.12115 14.9188 0.238922 24.9396 0.223633H24.976C27.4143 0.223633 29.771 0.569914 31.9984 1.22074Z" fill="#F30830"/>
<path fill-rule="evenodd" clip-rule="evenodd" d="M6.2591 42.5977L6.28597 42.6034L6.28308 42.6125C6.27729 42.6096 6.27398 42.6096 6.27109 42.6067L6.25 42.5977H6.2591Z" fill="#F30830"/>
<path fill-rule="evenodd" clip-rule="evenodd" d="M62.1201 13.6272C60.5948 13.4858 59.067 13.4887 57.5508 13.5611C56.035 13.6363 54.5279 13.7991 53.0452 14.0549C51.5621 14.3077 50.1005 14.6573 48.684 15.1032C48.4549 15.1722 48.2258 15.2478 47.9997 15.3259C46.8213 15.7206 45.6793 16.1995 44.5881 16.7478C43.9249 17.0582 43.3043 17.4404 42.6804 17.802L41.7732 18.3925C41.466 18.5792 41.1948 18.8168 40.9021 19.0247C40.6159 19.2387 40.3294 19.4495 40.0644 19.6904L39.2569 20.3834C38.7595 20.8925 38.2319 21.359 37.7857 21.9073C36.8335 22.9404 36.0529 24.1123 35.3297 25.2962L34.8323 26.2177C34.7509 26.3714 34.6665 26.5189 34.588 26.6755L34.3742 27.1544L33.9463 28.1061C33.8078 28.4255 33.7019 28.7598 33.5787 29.085C33.4642 29.4164 33.3314 29.7358 33.2289 30.0701L32.9395 31.0821L32.2916 33.3139L32.12 33.9044L31.9178 34.4887L31.508 35.6606C31.3815 36.0553 31.1975 36.4346 31.0441 36.823C30.8783 37.2086 30.7274 37.6003 30.5467 37.983C30.1668 38.7387 29.8265 39.516 29.3803 40.2569C29.1633 40.6276 28.9611 41.0069 28.7262 41.3743L28.0031 42.4648C26.9934 43.8987 25.8361 45.2722 24.5039 46.5131C23.1597 47.742 21.6497 48.8354 20.0132 49.7301C19.9437 49.7689 19.8747 49.8053 19.8023 49.8412C14.8684 48.8082 10.4654 46.3263 7.0625 42.8594C7.27048 42.9168 7.48755 42.9677 7.70751 43.016C8.28306 43.1396 8.87391 43.2301 9.47055 43.2962C10.6671 43.4106 11.8786 43.4255 13.0632 43.278C15.4381 42.9978 17.7164 42.1577 19.763 40.7569C20.7818 40.0433 21.734 39.1908 22.6292 38.2387L23.2833 37.5007C23.4971 37.2507 23.6902 36.9739 23.901 36.7119C24.3261 36.1966 24.6755 35.6094 25.0674 35.0491C25.2543 34.7631 25.4201 34.4586 25.5979 34.1606C25.7695 33.8594 25.9655 33.573 26.116 33.254L26.5952 32.3172L26.8367 31.8474L27.0504 31.3594L28.4732 28.1515C28.6477 27.7751 28.8556 27.4106 29.0458 27.04C29.2447 26.6726 29.4254 26.302 29.6425 25.9437L30.3053 24.8805L30.6369 24.3532C30.7514 24.1817 30.8812 24.0127 31.0015 23.8441L31.7429 22.8383C32.7919 21.5429 33.907 20.2991 35.1821 19.2387C35.7908 18.6755 36.4746 18.2086 37.1259 17.7115L38.1595 17.04C38.4973 16.811 38.8558 16.6152 39.2147 16.4164C39.5732 16.2268 39.9168 16.0069 40.2872 15.8412L41.3846 15.323C42.1317 15.0156 42.8702 14.6933 43.6359 14.4524C44.7812 14.061 45.9443 13.7416 47.1169 13.5007C47.4936 13.4222 47.8703 13.3532 48.2502 13.29C49.802 13.0247 51.3633 12.871 52.9187 12.8168C54.4738 12.7627 56.0259 12.8077 57.5628 12.9404C59.1001 13.0759 60.6279 13.2809 62.1201 13.6272Z" fill="#F30830"/>
<path fill-rule="evenodd" clip-rule="evenodd" d="M57.7953 6.17228C56.2944 5.86526 54.7757 5.69956 53.2595 5.60327C51.7437 5.50989 50.2304 5.50369 48.7266 5.59418C47.2229 5.68427 45.7368 5.87104 44.2781 6.1541C43.4582 6.31113 42.6478 6.50658 41.8519 6.73881C41.2342 6.9165 40.6222 7.11815 40.0227 7.34088C39.3322 7.576 38.6723 7.88633 38.0124 8.17559L37.0449 8.66319C36.7195 8.81691 36.421 9.02187 36.1105 9.19666C35.7999 9.37435 35.4927 9.55493 35.2033 9.76278L34.3263 10.3653C33.7748 10.814 33.1992 11.2206 32.696 11.7144C31.6351 12.6392 30.7279 13.7177 29.8778 14.814L29.2841 15.6727C29.1848 15.8169 29.0823 15.9558 28.9889 16.1033L28.7234 16.5549L28.1929 17.4524C28.0213 17.7537 27.8766 18.0793 27.7199 18.3863C27.5661 18.7024 27.4003 19.007 27.2618 19.326L26.864 20.2991L25.9751 22.4467L25.7369 23.0161L25.4715 23.5731L24.9352 24.6938C24.7632 25.0702 24.5403 25.4285 24.3444 25.7991C24.1364 26.1636 23.9437 26.5339 23.7237 26.8954C23.2623 27.6062 22.8373 28.3413 22.3101 29.0252C22.0537 29.3715 21.8127 29.7268 21.5386 30.064L20.6976 31.0673C19.5374 32.3805 18.2353 33.6186 16.7737 34.7058C15.3026 35.781 13.6814 36.7 11.9576 37.4074C10.2335 38.1153 8.41297 38.6095 6.56559 38.8896C5.7308 39.019 4.8898 39.0975 4.04922 39.1334C2.11707 36.221 0.77578 32.8805 0.203125 29.2839C0.29078 29.314 0.38133 29.3475 0.468572 29.3777C1.02303 29.564 1.60479 29.7177 2.18943 29.8504C3.36493 30.0942 4.56729 30.245 5.76098 30.2268C8.15373 30.212 10.5076 29.6305 12.699 28.4615C13.7897 27.8653 14.8296 27.1243 15.824 26.2752L16.5567 25.6124C16.7977 25.3896 17.0206 25.1363 17.2558 24.8983C17.7379 24.4347 18.151 23.8863 18.6029 23.3743C18.82 23.1095 19.016 22.826 19.2268 22.552C19.4286 22.269 19.6548 22.007 19.8417 21.7058L20.7129 20.3863L20.9808 19.9256L22.7471 16.8954C22.9642 16.5401 23.211 16.1996 23.4401 15.8533C23.6783 15.5128 23.9015 15.1603 24.1517 14.8289L24.929 13.8471L25.3177 13.3591C25.4537 13.1996 25.5984 13.0491 25.7369 12.8925L26.5837 11.9735C27.7712 10.802 29.0157 9.69046 30.4021 8.77476C31.0682 8.28675 31.8009 7.89832 32.5029 7.47352L33.6032 6.92228C33.9646 6.72972 34.3416 6.57311 34.7183 6.41939C35.0979 6.26898 35.4625 6.08798 35.8512 5.96443L36.9998 5.5698C37.7772 5.34708 38.5458 5.10906 39.3322 4.95245C39.4137 4.93427 39.4922 4.9165 39.5737 4.90121C41.0564 4.58509 42.5544 4.38633 44.0462 4.30493C45.6194 4.21774 47.1865 4.23551 48.7386 4.35327C50.2908 4.47063 51.8281 4.68427 53.341 4.98551C54.8538 5.29005 56.3485 5.66319 57.7953 6.17228Z" fill="#F30830"/>
<path fill-rule="evenodd" clip-rule="evenodd" d="M50.0654 25.299C50.0654 36.8412 42.2653 46.5581 31.6445 49.4767C33.8235 46.6878 35.6651 42.8833 36.7769 37.6998C38.7359 28.573 44.0284 23.4527 49.6222 20.585C49.9145 22.1089 50.0654 23.6845 50.0654 25.299Z" fill="#F30830"/>
<path fill-rule="evenodd" clip-rule="evenodd" d="M77.3043 15.425V37.9624C77.3043 38.4875 77.0421 38.75 76.5177 38.75H73.3335C72.8091 38.75 72.5469 38.4875 72.5469 37.9624V15.425C72.5469 14.8999 72.8091 14.6375 73.3335 14.6375H76.5177C77.0421 14.6375 77.3043 14.8999 77.3043 15.425ZM86.3323 38.75H83.1481C82.6237 38.75 82.3615 38.4875 82.3615 37.9624V15.425C82.3615 14.8999 82.6237 14.6375 83.1481 14.6375H95.098C95.5975 14.6375 95.8472 14.8999 95.8472 15.425V17.975C95.8472 18.5 95.5975 18.7625 95.098 18.7625H87.5685C87.2688 18.7625 87.1189 18.8999 87.1189 19.175V24.9874C87.1189 25.2875 87.2688 25.4375 87.5685 25.4375H93.9742C94.4986 25.4375 94.7608 25.6999 94.7608 26.2249V28.7374C94.7608 29.2875 94.4986 29.5624 93.9742 29.5624H87.5685C87.2688 29.5624 87.1189 29.6999 87.1189 29.9749V37.9624C87.1189 38.4875 86.8567 38.75 86.3323 38.75ZM101.953 38.75H98.2447C97.9949 38.75 97.8201 38.6687 97.7202 38.5062C97.6203 38.3437 97.6203 38.15 97.7202 37.9249L103.527 26.4124L97.9075 15.4625C97.8076 15.2624 97.8076 15.075 97.9075 14.9C98.0074 14.725 98.1822 14.6375 98.432 14.6375H102.028C102.652 14.6375 103.065 14.8999 103.264 15.425L106.823 23.4875H106.973L110.494 15.425C110.744 14.8999 111.143 14.6375 111.693 14.6375H115.364C115.614 14.6375 115.795 14.7312 115.907 14.9187C116.02 15.1062 116.026 15.2999 115.926 15.5L110.232 26.4124L116.038 37.8874C116.163 38.1374 116.176 38.3437 116.076 38.5062C115.976 38.6687 115.789 38.75 115.514 38.75H111.768C111.243 38.75 110.881 38.5 110.681 37.9999L106.973 29.9H106.823L103.077 37.9999C102.852 38.5 102.478 38.75 101.953 38.75ZM140.725 38.75H128.475C127.951 38.75 127.688 38.4875 127.688 37.9624V15.425C127.688 14.8999 127.951 14.6375 128.475 14.6375H140.725C141.224 14.6375 141.474 14.8999 141.474 15.425V17.975C141.474 18.5 141.224 18.7625 140.725 18.7625H132.895C132.596 18.7625 132.446 18.8999 132.446 19.175V24.0499C132.446 24.325 132.596 24.4625 132.895 24.4625H139.301C139.826 24.4625 140.088 24.7249 140.088 25.25V27.7999C140.088 28.325 139.826 28.5875 139.301 28.5875H132.895C132.596 28.5875 132.446 28.7249 132.446 29V34.2125C132.446 34.4875 132.596 34.625 132.895 34.625H140.725C141.224 34.625 141.474 34.8874 141.474 35.4124V37.9624C141.474 38.4875 141.224 38.75 140.725 38.75ZM155.447 38.75H150.539C150.015 38.75 149.703 38.4875 149.603 37.9624L143.796 15.5C143.622 14.9249 143.871 14.6375 144.546 14.6375H148.067C148.566 14.6375 148.866 14.8999 148.966 15.425L152.899 33.875H153.049L156.982 15.425C157.082 14.8999 157.382 14.6375 157.881 14.6375H161.403C162.027 14.6375 162.277 14.9249 162.152 15.5L156.346 37.9624C156.221 38.4875 155.921 38.75 155.447 38.75ZM171.704 34.625H174.364C175.163 34.625 175.731 34.4562 176.068 34.1187C176.406 33.7812 176.574 33.2125 176.574 32.4124V20.975C176.574 20.1749 176.406 19.6062 176.068 19.2687C175.731 18.9312 175.163 18.7625 174.364 18.7625H171.704C170.905 18.7625 170.343 18.9312 170.019 19.2687C169.694 19.6062 169.532 20.1749 169.532 20.975V32.4124C169.532 33.2125 169.694 33.7812 170.019 34.1187C170.343 34.4562 170.905 34.625 171.704 34.625ZM175.151 38.75H170.955C168.982 38.75 167.459 38.225 166.385 37.1749C165.311 36.1249 164.774 34.6125 164.774 32.6374V20.75C164.774 18.7749 165.311 17.2625 166.385 16.2125C167.459 15.1624 168.982 14.6375 170.955 14.6375H175.151C177.124 14.6375 178.647 15.1624 179.721 16.2125C180.795 17.2625 181.332 18.7749 181.332 20.75V32.6374C181.332 34.6125 180.795 36.1249 179.721 37.1749C178.647 38.225 177.124 38.75 175.151 38.75ZM198.938 38.75H186.614C186.089 38.75 185.827 38.4875 185.827 37.9624V15.425C185.827 14.8999 186.089 14.6375 186.614 14.6375H189.798C190.322 14.6375 190.584 14.8999 190.584 15.425V34.1749C190.584 34.45 190.734 34.5875 191.034 34.5875H198.938C199.437 34.5875 199.687 34.8624 199.687 35.4124V37.9624C199.687 38.4875 199.437 38.75 198.938 38.75ZM212.461 38.75H207.554C207.029 38.75 206.717 38.4875 206.617 37.9624L200.811 15.5C200.636 14.9249 200.886 14.6375 201.56 14.6375H205.081C205.581 14.6375 205.881 14.8999 205.981 15.425L209.914 33.875H210.064L213.997 15.425C214.097 14.8999 214.397 14.6375 214.896 14.6375H218.417C219.042 14.6375 219.291 14.9249 219.167 15.5L213.36 37.9624C213.235 38.4875 212.936 38.75 212.461 38.75ZM235.2 38.75H222.95C222.426 38.75 222.163 38.4875 222.163 37.9624V15.425C222.163 14.8999 222.426 14.6375 222.95 14.6375H235.2C235.699 14.6375 235.949 14.8999 235.949 15.425V17.975C235.949 18.5 235.699 18.7625 235.2 18.7625H227.37C227.071 18.7625 226.921 18.8999 226.921 19.175V24.0499C226.921 24.325 227.071 24.4625 227.37 24.4625H233.776C234.301 24.4625 234.563 24.7249 234.563 25.25V27.7999C234.563 28.325 234.301 28.5875 233.776 28.5875H227.37C227.071 28.5875 226.921 28.7249 226.921 29V34.2125C226.921 34.4875 227.071 34.625 227.37 34.625H235.2C235.699 34.625 235.949 34.8874 235.949 35.4124V37.9624C235.949 38.4875 235.699 38.75 235.2 38.75Z" fill="#F9FCFF"/>
</svg>
